assets/post/images/redis6.svg

<svg xmlns="http://www.w3.org/2000/svg" width="2310" height="158" overflow="hidden"><defs><clipPath id="a"><path d="M373 1829h2310v158H373z"/></clipPath></defs><g clip-path="url(#a)" transform="translate(-373 -1829)"><path fill="#d74514" fill-rule="evenodd" d="M375.543 1831.37h576.246v133.83H375.543Zm576.246 0h166.741v133.83H951.789Zm166.741 0h409.89v133.83h-409.89Zm409.89 0h1149.79v133.83H1528.42Z"/><path fill="none" stroke="#000" stroke-linejoin="round" stroke-miterlimit="10" stroke-width="4.583" d="M951.789 1829.08v138.42m166.741-138.42v138.42m409.89-138.42v138.42M375.543 1829.08v138.42m2302.667-138.42v138.42M373.252 1831.37H2680.5M373.252 1965.2H2680.5"/><text fill="#fff" font-family="Courier New,Courier New_MSFontService,sans-serif" font-size="73" font-weight="700" transform="translate(575.437 1919)">HYLL<tspan x="437.664" y="0">E</tspan><tspan x="681.865" y="0">N/U</tspan><tspan x="1373.48" y="0">Cardin.</tspan></text></g></svg>

<svg width="2310" height="158" xmlns="http://www.w3.org/2000/svg" xmlns:xlink="http://www.w3.org/1999/xlink" overflow="hidden"><defs><clipPath id="clip0"><rect x="373" y="1829" width="2310" height="158"/></clipPath></defs><g clip-path="url(#clip0)" transform="translate(-373 -1829)"><path d="M375.543 1831.37 951.789 1831.37 951.789 1965.2 375.543 1965.2Z" fill="#D74514" fill-rule="evenodd"/><path d="M951.789 1831.37 1118.53 1831.37 1118.53 1965.2 951.789 1965.2Z" fill="#D74514" fill-rule="evenodd"/><path d="M1118.53 1831.37 1528.42 1831.37 1528.42 1965.2 1118.53 1965.2Z" fill="#D74514" fill-rule="evenodd"/><path d="M1528.42 1831.37 2678.21 1831.37 2678.21 1965.2 1528.42 1965.2Z" fill="#D74514" fill-rule="evenodd"/><path d="M951.789 1829.08 951.789 1967.5" stroke="#000000" stroke-width="4.58333" stroke-linejoin="round" stroke-miterlimit="10" fill="none" fill-rule="evenodd"/><path d="M1118.53 1829.08 1118.53 1967.5" stroke="#000000" stroke-width="4.58333" stroke-linejoin="round" stroke-miterlimit="10" fill="none" fill-rule="evenodd"/><path d="M1528.42 1829.08 1528.42 1967.5" stroke="#000000" stroke-width="4.58333" stroke-linejoin="round" stroke-miterlimit="10" fill="none" fill-rule="evenodd"/><path d="M375.543 1829.08 375.543 1967.5" stroke="#000000" stroke-width="4.58333" stroke-linejoin="round" stroke-miterlimit="10" fill="none" fill-rule="evenodd"/><path d="M2678.21 1829.08 2678.21 1967.5" stroke="#000000" stroke-width="4.58333" stroke-linejoin="round" stroke-miterlimit="10" fill="none" fill-rule="evenodd"/><path d="M373.252 1831.37 2680.5 1831.37" stroke="#000000" stroke-width="4.58333" stroke-linejoin="round" stroke-miterlimit="10" fill="none" fill-rule="evenodd"/><path d="M373.252 1965.2 2680.5 1965.2" stroke="#000000" stroke-width="4.58333" stroke-linejoin="round" stroke-miterlimit="10" fill="none" fill-rule="evenodd"/><text fill="#FFFFFF" font-family="Courier New,Courier New_MSFontService,sans-serif" font-weight="700" font-size="73" transform="matrix(1 0 0 1 575.437 1919)">HYLL<tspan font-size="73" x="437.664" y="0">E</tspan><tspan font-size="73" x="681.865" y="0">N/U</tspan><tspan font-size="73" x="1373.48" y="0">Cardin.</tspan></text></g></svg>
